X: 19493
T: Jackson's Rum Punch
R: jig
M: 6/8
K: Gmajor
|:A|BGE DEF|GBd e2f|~g3 edB|dBG Adc|
BGE DEF|GBd e2f|gfe dBA|BGF G2:|
d|~g3 aga|bag ged|ege edB|dBG ABd|
gfg aga|bag ged|e/f/ge dBA|BGF GBd|
~g3 aga|bag ged|ege edB|dBG Adc|
BdB B2A|GBd e2f|gfe dBA|BGF G2||

